X:0834
T:Miss Ogilvie's Reel.
N:bar 2 is |cg agfg aAAc| in the book
M:C
L:1/8
Q:1/2=100
I: :: :|
Z:Jack Campin * www.campin.me.uk * 2009
K:G
 c    |BAGB dgdB|cg a/g/f/g/ aAAc|BGBd gage|faAc BGG:|
(d/c/)|Bdgd ceac|BdBG        FAAc|Bgfa gedB|cAdc BGG|]

